X: 20732
Q: "Andante"
M: 2/4
L: 1/16
K: G
d2B>c d2B>c | d2"_>"b>a g2d>d |\
d2"_>"c'>b a2b>a | g6 :|\
|: d>d |\
d2a>g f2d>d | d2b>a g2d>d |
(cfa)g {g}f2({f}ed) | (dg)(ba) g2Bc |\
(ed).B.c (ed).B.c | (dgb).a g2d2 |\
{ed^c}d2c'>b a2b>a | g6 H|]


